svg/blobs-icons/no-decorations/clipboard.svg

<svg xmlns="http://www.w3.org/2000/svg" xmlns:xlink="http://www.w3.org/1999/xlink" preserveAspectRatio="xMidYMid" width="168" height="216" viewBox="0 0 168 216"><defs><style>.cls-3{fill:#142a3b}.cls-4{fill:#000;opacity:.35}.cls-5{fill:#ededed}.cls-7{fill:#fbb713}</style></defs><g id="group-107svg"><path d="M167.216 215.537s-167.224.0-167.224.0.0-202.013.0-202.013 167.224.0 167.224.0.0 202.013.0 202.013z" id="path-1" class="cls-3" fill-rule="evenodd"/><path d="M156.398 201.067s-132.117.0-132.117.0.0-159.604.0-159.604 132.117.0 132.117.0.0 159.604.0 159.604z" id="path-2" class="cls-4" fill-rule="evenodd"/><path d="M149.663 194.332s-132.118.0-132.118.0.0-159.603.0-159.603 132.118.0 132.118.0.0 159.603.0 159.603z" id="path-3" class="cls-5" fill-rule="evenodd"/><path d="M129.722 56.005s-78.765.0-78.765.0.0-27.76.0-27.76 78.765.0 78.765.0.0 27.76.0 27.76z" id="path-4" class="cls-4" fill-rule="evenodd"/><path d="M122.987 49.27s-78.766.0-78.766.0.0-27.761.0-27.761 78.766.0 78.766.0.0 27.761.0 27.761z" id="path-5" class="cls-7" fill-rule="evenodd"/><path d="M104.695 21.094C104.695 32.742 95.253 42.185 83.605 42.185 71.956 42.185 62.513 32.742 62.513 21.094 62.513 9.447 71.956.004 83.605.004c11.648.0 21.09 9.443 21.09 21.09z" id="path-6" class="cls-7" fill-rule="evenodd"/><path d="M91.972 21.094C91.972 25.715 88.226 29.461 83.605 29.461 78.983 29.461 75.237 25.715 75.237 21.094 75.237 16.474 78.983 12.726 83.605 12.726 88.226 12.726 91.972 16.474 91.972 21.094z" id="path-7" class="cls-3" fill-rule="evenodd"/><path d="M87.565 13.766C88.206 14.95 88.604 16.285 88.604 17.727c0 4.621-3.746 8.366-8.368 8.366C78.795 26.093 77.46 25.696 76.276 25.054 77.692 27.666 80.424 29.461 83.604 29.461c4.622.0 8.368-3.746 8.368-8.367C91.972 17.915 90.177 15.181 87.565 13.766z" id="path-8" class="cls-4" fill-rule="evenodd"/></g></svg>

<svg xmlns="http://www.w3.org/2000/svg" xmlns:xlink="http://www.w3.org/1999/xlink" preserveAspectRatio="xMidYMid" width="168" height="216" viewBox="0 0 168 216">
  <defs>
    <style>

      .cls-3 {
        fill: #142a3b;
      }

      .cls-4 {
        fill: #000000;
        opacity: 0.35;
      }

      .cls-5 {
        fill: #ededed;
      }

      .cls-7 {
        fill: #fbb713;
      }
    </style>
  </defs>
  <g id="group-107svg">
    <path d="M167.216,215.537 C167.216,215.537 -0.008,215.537 -0.008,215.537 C-0.008,215.537 -0.008,13.524 -0.008,13.524 C-0.008,13.524 167.216,13.524 167.216,13.524 C167.216,13.524 167.216,215.537 167.216,215.537 Z" id="path-1" class="cls-3" fill-rule="evenodd"/>
    <path d="M156.398,201.067 C156.398,201.067 24.281,201.067 24.281,201.067 C24.281,201.067 24.281,41.463 24.281,41.463 C24.281,41.463 156.398,41.463 156.398,41.463 C156.398,41.463 156.398,201.067 156.398,201.067 Z" id="path-2" class="cls-4" fill-rule="evenodd"/>
    <path d="M149.663,194.332 C149.663,194.332 17.545,194.332 17.545,194.332 C17.545,194.332 17.545,34.729 17.545,34.729 C17.545,34.729 149.663,34.729 149.663,34.729 C149.663,34.729 149.663,194.332 149.663,194.332 Z" id="path-3" class="cls-5" fill-rule="evenodd"/>
    <path d="M129.722,56.005 C129.722,56.005 50.957,56.005 50.957,56.005 C50.957,56.005 50.957,28.245 50.957,28.245 C50.957,28.245 129.722,28.245 129.722,28.245 C129.722,28.245 129.722,56.005 129.722,56.005 Z" id="path-4" class="cls-4" fill-rule="evenodd"/>
    <path d="M122.987,49.270 C122.987,49.270 44.221,49.270 44.221,49.270 C44.221,49.270 44.221,21.509 44.221,21.509 C44.221,21.509 122.987,21.509 122.987,21.509 C122.987,21.509 122.987,49.270 122.987,49.270 Z" id="path-5" class="cls-7" fill-rule="evenodd"/>
    <path d="M104.695,21.094 C104.695,32.742 95.253,42.185 83.605,42.185 C71.956,42.185 62.513,32.742 62.513,21.094 C62.513,9.447 71.956,0.004 83.605,0.004 C95.253,0.004 104.695,9.447 104.695,21.094 Z" id="path-6" class="cls-7" fill-rule="evenodd"/>
    <path d="M91.972,21.094 C91.972,25.715 88.226,29.461 83.605,29.461 C78.983,29.461 75.237,25.715 75.237,21.094 C75.237,16.474 78.983,12.726 83.605,12.726 C88.226,12.726 91.972,16.474 91.972,21.094 Z" id="path-7" class="cls-3" fill-rule="evenodd"/>
    <path d="M87.565,13.766 C88.206,14.950 88.604,16.285 88.604,17.727 C88.604,22.348 84.858,26.093 80.236,26.093 C78.795,26.093 77.460,25.696 76.276,25.054 C77.692,27.666 80.424,29.461 83.604,29.461 C88.226,29.461 91.972,25.715 91.972,21.094 C91.972,17.915 90.177,15.181 87.565,13.766 Z" id="path-8" class="cls-4" fill-rule="evenodd"/>
  </g>
</svg>
